X: 28805
T: My Mind Will Never Be Easy
R: slip jig
M: 9/8
K: Eminor
|:edB B2A G2E|E2e e2d efg|edB B2A G2E|Bd2 d2B def:|
e2f gfe fed|Bee e2d edB|e2f gfe fed|BGB d2B def|
e2f gfe fed|Bee e2d efg|agf gfe dBA|BGB d2B def||

